src/icons/svg/ticket-list.svg

<?xml version="1.0" encoding="UTF-8"?>
<svg width="40px" height="49px" viewBox="0 0 40 49" version="1.1" xmlns="http://www.w3.org/2000/svg"
>
    <path d="M9.49555556,27.72 C9.55739768,27.8695069 9.64800128,28.0054123 9.76222222,28.12 L16.7444444,35.1044444 L16.8622222,35.2088889 C17.3544789,35.5877149 18.0512674,35.5430368 18.4911111,35.1044444 L30.7133333,22.8822222 C30.944704,22.6509173 31.0746922,22.337161 31.0746922,22.01 C31.0746922,21.682839 30.944704,21.3690827 30.7133333,21.1377778 L28.9666667,19.3911111 C28.7352721,19.1590598 28.4210393,19.0286394 28.0933333,19.0286394 C27.7656273,19.0286394 27.4513945,19.1590598 27.22,19.3911111 L17.62,28.9933333 L13.2533333,24.6288889 C13.0220284,24.3975182 12.7082722,24.26753 12.3811111,24.26753 C12.0539501,24.26753 11.7401938,24.3975182 11.5088889,24.6288889 L9.76222222,26.3755556 C9.40957294,26.7285097 9.30431851,27.2591675 9.49555556,27.72 Z"
          id="路径" fill="#646A73"></path>
    <path d="M9.49555556,27.72 C9.55739768,27.8695069 9.64800128,28.0054123 9.76222222,28.12 L16.7444444,35.1044444 L16.8622222,35.2088889 C17.3544789,35.5877149 18.0512674,35.5430368 18.4911111,35.1044444 L30.7133333,22.8822222 C30.944704,22.6509173 31.0746922,22.337161 31.0746922,22.01 C31.0746922,21.682839 30.944704,21.3690827 30.7133333,21.1377778 L28.9666667,19.3911111 C28.7352721,19.1590598 28.4210393,19.0286394 28.0933333,19.0286394 C27.7656273,19.0286394 27.4513945,19.1590598 27.22,19.3911111 L17.62,28.9933333 L13.2533333,24.6288889 C13.0220284,24.3975182 12.7082722,24.26753 12.3811111,24.26753 C12.0539501,24.26753 11.7401938,24.3975182 11.5088889,24.6288889 L9.76222222,26.3755556 C9.40957294,26.7285097 9.30431851,27.2591675 9.49555556,27.72 Z"
          id="路径" fill-opacity="0.2" fill="#000000"></path>
    <path d="M28.8888889,0 L11.1111111,0 C9.74666667,0 8.88888889,0.86 8.88888889,2.22222222 L8.88888889,4.44444444 L2.22222222,4.44444444 C0.697777778,4.44444444 0,5.30444444 0,6.66666667 L0,46.6666667 C0,48.0311111 0.697777778,48.8888889 2.22222222,48.8888889 L37.7777778,48.8888889 C39.3022222,48.8888889 40,48.0288889 40,46.6666667 L40,6.66666667 C40,5.30222222 39.3022222,4.44444444 37.7777778,4.44444444 L31.1111111,4.44444444 L31.1111111,8.88888889 L35.5555556,8.88888889 L35.5555556,44.4444444 L4.44444444,44.4444444 L4.44444444,8.88888889 L8.88888889,8.88888889 L8.88888889,11.1111111 C8.88888889,12.4733333 9.74666667,13.3333333 11.1111111,13.3333333 L28.8888889,13.3333333 C30.2511111,13.3333333 31.1111111,12.4733333 31.1111111,11.1111111 L31.1111111,2.22222222 C31.1111111,0.857777778 30.2511111,0 28.8888889,0 Z M13.3333333,8.88888889 L13.3333333,4.44444444 L26.6666667,4.44444444 L26.6666667,8.88888889 L13.3333333,8.88888889 Z"
          id="形状" fill="#646A73"></path>
    <path d="M28.8888889,0 L11.1111111,0 C9.74666667,0 8.88888889,0.86 8.88888889,2.22222222 L8.88888889,4.44444444 L2.22222222,4.44444444 C0.697777778,4.44444444 0,5.30444444 0,6.66666667 L0,46.6666667 C0,48.0311111 0.697777778,48.8888889 2.22222222,48.8888889 L37.7777778,48.8888889 C39.3022222,48.8888889 40,48.0288889 40,46.6666667 L40,6.66666667 C40,5.30222222 39.3022222,4.44444444 37.7777778,4.44444444 L31.1111111,4.44444444 L31.1111111,8.88888889 L35.5555556,8.88888889 L35.5555556,44.4444444 L4.44444444,44.4444444 L4.44444444,8.88888889 L8.88888889,8.88888889 L8.88888889,11.1111111 C8.88888889,12.4733333 9.74666667,13.3333333 11.1111111,13.3333333 L28.8888889,13.3333333 C30.2511111,13.3333333 31.1111111,12.4733333 31.1111111,11.1111111 L31.1111111,2.22222222 C31.1111111,0.857777778 30.2511111,0 28.8888889,0 Z M13.3333333,8.88888889 L13.3333333,4.44444444 L26.6666667,4.44444444 L26.6666667,8.88888889 L13.3333333,8.88888889 Z"
          id="形状" fill-opacity="0.2" fill="#000000"></path>
</svg>

<svg width="40" height="49" xmlns="http://www.w3.org/2000/svg"><path d="M9.496 27.72c.061.15.152.285.266.4l6.982 6.984.118.105a1.238 1.238 0 0 0 1.63-.105l12.221-12.222a1.233 1.233 0 0 0 0-1.744l-1.746-1.747a1.233 1.233 0 0 0-1.747 0l-9.6 9.602-4.367-4.364a1.233 1.233 0 0 0-1.744 0l-1.747 1.747a1.233 1.233 0 0 0-.266 1.344z" fill="currentColor"/><path d="M9.496 27.72c.061.15.152.285.266.4l6.982 6.984.118.105a1.238 1.238 0 0 0 1.63-.105l12.221-12.222a1.233 1.233 0 0 0 0-1.744l-1.746-1.747a1.233 1.233 0 0 0-1.747 0l-9.6 9.602-4.367-4.364a1.233 1.233 0 0 0-1.744 0l-1.747 1.747a1.233 1.233 0 0 0-.266 1.344z" fill-opacity=".2" fill="currentColor"/><path d="M28.889 0H11.11C9.747 0 8.89.86 8.89 2.222v2.222H2.222C.698 4.444 0 5.304 0 6.667v40c0 1.364.698 2.222 2.222 2.222h35.556c1.524 0 2.222-.86 2.222-2.222v-40c0-1.365-.698-2.223-2.222-2.223H31.11V8.89h4.445v35.555H4.444V8.89H8.89v2.222c0 1.362.858 2.222 2.222 2.222H28.89c1.362 0 2.222-.86 2.222-2.222V2.222C31.111.858 30.251 0 28.89 0zM13.333 8.889V4.444h13.334V8.89H13.333z" fill="currentColor"/><path d="M28.889 0H11.11C9.747 0 8.89.86 8.89 2.222v2.222H2.222C.698 4.444 0 5.304 0 6.667v40c0 1.364.698 2.222 2.222 2.222h35.556c1.524 0 2.222-.86 2.222-2.222v-40c0-1.365-.698-2.223-2.222-2.223H31.11V8.89h4.445v35.555H4.444V8.89H8.89v2.222c0 1.362.858 2.222 2.222 2.222H28.89c1.362 0 2.222-.86 2.222-2.222V2.222C31.111.858 30.251 0 28.89 0zM13.333 8.889V4.444h13.334V8.89H13.333z" fill-opacity=".2" fill="currentColor"/></svg>
